X: 36231
T: Scully Casey's
R: jig
M: 6/8
K: Aminor
e/^f/|gea ged|cAB c2d|eaa age|ed^c de^f|
gea ged|cAB cde|fed ecA|GFE D2:|
|:cBc A2G|EcB cde|ded cAG|Adc ded|
cBc A2G|EcB cde|fed ecA|GFE D3:|

